X:1
T: The Grand Antiquity
C:James Booth
R:Reel
Q: 232
K:Dm
M:4/4
L:1/8
|:D3E FE DF|ED CD ED CE|D3E FE DF|ED ^CE D2 D2|
D3E FE DF|ED CD ED CE|D3E FE DF|ED ^CE D2 D2|
de fd e^c A2|GA BG AF D2|BA GB AG FA|GA GF E2 e2|
de fd e^c A2|GA BG AF D2|GA BG AF DF|E^C A,C D2 D2:|
